public/icons/dark/nextjs.darkmode.svg

<svg width="192" height="192" viewBox="0 0 192 192" fill="none" xmlns="http://www.w3.org/2000/svg">
<g id="icons">
<path id="Vector" d="M90.9202 18.5401C90.5902 18.5701 89.5302 18.6801 88.5702 18.7501C66.5502 20.7301 45.9302 32.6101 32.8702 50.8701C25.6002 61.0201 20.9502 72.5301 19.1902 84.7301C18.5702 88.9901 18.4902 90.2401 18.4902 96.0201C18.4902 101.8 18.5702 103.05 19.1902 107.31C23.4002 136.41 44.1102 160.86 72.2102 169.92C77.2402 171.54 82.5402 172.65 88.5702 173.31C90.9202 173.57 101.07 173.57 103.42 173.31C113.83 172.16 122.65 169.58 131.34 165.14C132.67 164.46 132.93 164.28 132.75 164.12C132.63 164.03 126.95 156.41 120.13 147.2L107.74 130.46L92.2102 107.48C83.6602 94.8501 76.6302 84.5101 76.5702 84.5101C76.5102 84.4901 76.4502 94.7101 76.4202 107.17C76.3702 129 76.3602 129.88 76.0902 130.39C75.7002 131.13 75.3902 131.44 74.7602 131.77C74.2802 132.01 73.8502 132.06 71.5602 132.06H68.9402L68.2402 131.62C67.7902 131.33 67.4502 130.95 67.2202 130.51L66.9002 129.83L66.9302 99.4601L66.9802 69.0701L67.4502 68.4801C67.6902 68.1601 68.2102 67.7501 68.5702 67.5601C69.1902 67.2601 69.4302 67.2301 72.0502 67.2301C75.1402 67.2301 75.6602 67.3501 76.4602 68.2301C76.6902 68.4701 85.1002 81.1401 95.1602 96.3901C105.22 111.65 118.98 132.48 125.74 142.7L138.01 161.29L138.63 160.88C144.13 157.3 149.95 152.21 154.55 146.91C164.35 135.65 170.67 121.93 172.79 107.29C173.41 103.03 173.49 101.78 173.49 96.0001C173.49 90.2201 173.41 88.9701 172.79 84.7101C168.58 55.6101 147.87 31.1601 119.77 22.1001C114.82 20.4901 109.54 19.3901 103.63 18.7201C102.18 18.5701 92.1602 18.4001 90.9002 18.5201L90.9202 18.5401ZM122.65 65.4101C123.38 65.7701 123.97 66.4701 124.18 67.2001C124.3 67.5901 124.33 76.0201 124.3 95.0001L124.25 122.24L119.45 114.88L114.63 107.52V87.7201C114.63 74.9201 114.69 67.7201 114.78 67.3701C115.02 66.5201 115.55 65.8601 116.28 65.4601C116.9 65.1401 117.13 65.1101 119.51 65.1101C121.75 65.1101 122.15 65.1401 122.65 65.4101Z" fill="white"/>
</g>
</svg>

<?xml version="1.0" encoding="UTF-8"?><svg id="Capa_2" xmlns="http://www.w3.org/2000/svg" viewBox="0 0 192 192"><defs><style>.cls-1{fill:none;}</style></defs><g id="icons"><path d="M90.92,18.54c-.33,.03-1.39,.14-2.35,.21-22.02,1.98-42.64,13.86-55.7,32.12-7.27,10.15-11.92,21.66-13.68,33.86-.62,4.26-.7,5.51-.7,11.29s.08,7.03,.7,11.29c4.21,29.1,24.92,53.55,53.02,62.61,5.03,1.62,10.33,2.73,16.36,3.39,2.35,.26,12.5,.26,14.85,0,10.41-1.15,19.23-3.73,27.92-8.17,1.33-.68,1.59-.86,1.41-1.02-.12-.09-5.8-7.71-12.62-16.92l-12.39-16.74-15.53-22.98c-8.55-12.63-15.58-22.97-15.64-22.97-.06-.02-.12,10.2-.15,22.66-.05,21.83-.06,22.71-.33,23.22-.39,.74-.7,1.05-1.33,1.38-.48,.24-.91,.29-3.2,.29h-2.62l-.7-.44c-.45-.29-.79-.67-1.02-1.11l-.32-.68,.03-30.37,.05-30.39,.47-.59c.24-.32,.76-.73,1.12-.92,.62-.3,.86-.33,3.48-.33,3.09,0,3.61,.12,4.41,1,.23,.24,8.64,12.91,18.7,28.16,10.06,15.26,23.82,36.09,30.58,46.31l12.27,18.59,.62-.41c5.5-3.58,11.32-8.67,15.92-13.97,9.8-11.26,16.12-24.98,18.24-39.62,.62-4.26,.7-5.51,.7-11.29s-.08-7.03-.7-11.29c-4.21-29.1-24.92-53.55-53.02-62.61-4.95-1.61-10.23-2.71-16.14-3.38-1.45-.15-11.47-.32-12.73-.2h0Zm31.73,46.87c.73,.36,1.32,1.06,1.53,1.79,.12,.39,.15,8.82,.12,27.8l-.05,27.24-4.8-7.36-4.82-7.36v-19.8c0-12.8,.06-20,.15-20.35,.24-.85,.77-1.51,1.5-1.91,.62-.32,.85-.35,3.23-.35,2.24,0,2.64,.03,3.14,.3Z"/><rect class="cls-1" width="192" height="192"/></g></svg>
